X:775
T:Miss Sackville's Fancy
A:Wyresdale, Lancashire
B:H.S.J. Jackson, 1823
L:1/16
M:2/4
O:England
Z:Richard Robinson 
%%TUNEURL: http://www.leeds.ac.uk/music/Info/RRTuneBk/gettune/00000e67.html
%%ID:00000e67
K:D
A2FG B2dc | BGBe dcBA | defd B2ef | gefd dcBA |
A2FG A2dc | BGBe dcBA | defd Bgfe | dfec d4 ::
dfed ecBA | defd fdAF | GBeG  FAdF | EFGA GFED |
dfed ecBA | efge fedc | dfA^c Bgfe | edec d4 ::
%page:90
